X:1
T:Vien dal Ciel
T:Vien dal Ciel
T:Giovanni Ghizzolo
C:Giovanni Ghizzolo
%%score [ 1 2 ] { 3 | 4 }
L:1/8
Q:1/4=120
M:4/4
K:F
V:1 treble nm="Soprano 1" snm="S 1"
V:2 treble nm="Soprano 2" snm="S 2"
V:3 treble nm="MusicXML Part"
V:4 bass 
V:1
 z2 f_e d2 cB | c2 c2 _ee e2- | e2 dc dG AB | c4 c4 |[M:3/4] c2 d2 B2 | c3 F GA | B2 AB G2 | %7
w: Vien dal ciel o dal|ma- re ques- ta no|_ va gen- til- _ Si- *|re- na,|che'l mar' e'l|ciel con suo splen-|dor se- * re-|
 F4 f2 | g2 e2 f2- | fc ce f2 | ef d4 | c6 | cB AG A2- | A6 | BA Bc A2 | G6 | z6 | z6 | z6 | z6 | %20
w: na, che'l|mar' e'l ciel|_ con suo splen- dor|se- * re-|na,|vien _ da _ ciel|_|la _ chia- * rez-|za|||||
 AB cB cd- | dG AB c2- | c6- | cB cd e2 | d6 | c6 | GA BA Bc- | cF GA B2- | B6- | BA Bc d2 | G6 | %31
w: che s'ha va- go sem- bian|_ t'ha _ _ cau-||* do _ _ _|co-|re|che s'ha va- go sem- bian|_ t'ha _ _ cru-||* do _ _ _|co-|
[M:4/4] F8 | z4 c4- | c4 =B4 | _e6 f2 | d8 | c4 z2 cG | A2 Ac GA B>c | A4 G4 | z8 | z8 | z8 | z8 | %43
w: re|O|_ cru-|dez- *||za O va-|ghez- za,- va- ghez- za'in- fi- dia-|tri- ce|||||
 z8 | z8 | z2 d2 _e/d/c/B/ c2- | c4 d4 | _e8 | d8 |[M:3/2] A4 B4 c4 | d2 _e2 B2 c2 A2 B2 | %51
w: ||ch'il mar _ _ _ _|_ del|pian-|to|e'l ciel del|ri- * * * * *|
 c2 G2 A2 B2 c4- | c2 F2 G8 |[M:4/4] F4 z ABc | d>e d>e f3 A | B2 d2 AGAB | FEFG A F3 | G4 z2 Bc | %58
w: |* zs'a- vez-|za che fa ch'or-|mai _ _ _ _ del|ciel del mar _ _ _|non _ _ _ _ si-|a O men|
 d8- | d2 AB A4 | G4 z2 AB | c8- | c2 GA G4 | F8 :| %64
w: bel-|* la'o men ri-|a O men|bel-|* la'o men ri-|a.|
V:2
 z2 dc B2 AG | A2 A2 cc c2- | c2 BA B2 G2 | A4 A4 |[M:3/4] z2 F2 G2 | E2 F3 C | DE FD E2 | %7
w: Vien dal ciel o dal|ma- re ques- ta no-|* va gen- til Si-|re- na|che'l mar'|e'l ciel con|suo splen- dor se- re-|
 F2 c2 d2 | B2 c3 F | GA B2 AB | G c4 =B | c6 | z6 | z6 | z6 | z6 | GF ED E2- | E6 | FE FG E2 | %19
w: na, che'l mar'|e'l ciel con|suo splen- dor se- *|re- * *|na,|||||vien _ da _ mar'|_|il _ ri- * go-|
 D6 | FG AG AB- | B6 | BA Bc d2- | d4 c2- | c4 =B2 | c6 | EF GF GA- | A6- | AG AB c2- | c4 F2 | %30
w: re|che s'a va- go sem- bian|_|t'ha- * * * cau|_ do|_ co-|re|che s'ha va- go sem- bian|_|* t'ha _ _ cru-|* do|
 F4 E2 |[M:4/4] F8 | B8 | A4 d4- | d2 _e2 c4- | c4 =B4 | c4 z4 | z8 | z8 | z4 c4- | c4 B4 | %41
w: co- *|re.|O|cru- dez-|||za|||O|_ cru-|
 A4 A2 c2 | c8- | c2 BA cG AB | A4 G4 | z2 B2 c/B/A/G/ A2 | A4 B4- | B4 A4 | B8 |[M:3/2] F4 G4 A4 | %50
w: dez- za cau-|dez-|* z'al _ let- * ta- *|tri- ce|ch'il mar- _ _ _ _|del pian-||to,|e'l ci del|
 B2 c2 G2 A2 F2 G2 | A2 E2 F2 G2 A4 | E2 F8 E2 |[M:4/4] F4 z FGA | B>c B>c d3 F | G2 B2 FEFG | %56
w: ri- * * * * *||s'a- vez- *|za che fa ch'hor-|mai _ _ _ _ del|ciel del mar _ _ _|
 DCDE F D3 | E2 EF G>A G2 | B6 AB | ^F2 G4 F2 | G2 DE F>G F>G | A6 GA | E2 F4 E2 | F8 :| %64
w: non _ _ _ _ si-|a, O men bel _ _|_ la, O|men ri- *|a, O men bel- * * *|* a'o men|ri- * *|a.|
V:3
 [DFB]8 | [FAc]4 [_EGc]4 | [DGB]8 | [FAc]8 |[M:3/4] [FAc]2 [DFB]2 [DGB]2 | [EGc]2 [FAc]4 | %6
 [DFB]4 [EG]2 | [FAc]4 [DB]2- | [DB]2 [EA]2 [FA]2- | [FA]2 [FB]2 [FAc]2 | [EG]2 [DG]4 | [EGc]6 | %12
 [FAc]6 | [FA]6 | [GB]2 [Ec]2 [^FA]2 | [DG=B]6 | [EGc]6 | [EAc]6 | [FA]2 [=Bd]2 [EA^c]2 | [^FA]6 | %20
 [FA]6 | [DB]4 [CG]2 | [FAc]4 [DA]2 | [DG]4 [_EG]2 | [DG]6 | [EG]6 | [EG]6 | [DA]6 | [DGB]6 | %29
 [FAc]6 | [Gc]6 |[M:4/4] [FA]8 | [Fd]4 [Gc]4 | [Ad]4 [=Bd]4 | [Gc]8 | [Gd]8 | [Gce]8 | %37
 [FAc]4 [Gc]4 | [DG]2 [^FA]2 [D=B]4 | [EG]8 | [Ac]4 [GB]4 | [CA]8 | [Gc]4 [DA]4 | [DGB]4 [EG]4 | %44
 [DG]2 [^FA]2 [D=B]4 | [DG]4 [FA]4- | [FA]4 [DF]4 | [_EG]4 [FA]4 | [DFB]8 | %49
[M:3/2] [FA]4 [DB]4 [FAc]4 | [DG]12 | [FAc]12 | [Gc]12 |[M:4/4] [FAc]8 | [DFB]8 | [DGB]4 [FA]4 | %56
 [FA]8 | [EG]4 [DB]4 | [GB]8 | [Ad]8 | [D=B]4 [F-Ac-]4 | [FAc]8 | [Gc]8 | [FAc]8 :| %64
V:4
 B,,8 | F,4 C,4 | G,8 | F,4 F,,4 |[M:3/4] F,,2 B,,2 G,,2 | C,2 F,2 F,,2 | B,,4 C,2 | F,,2 A,2 B,2 | %8
 G,2 A,2 D,2 | F,2 B,,2 F,,2 | C,2 G,,4 | C,6 | F,6 | D,3 E, F,2 | G,2 C,2 D,2 | G,,6 | C,6 | %17
 A,,3 B,, C,2 | D,2 G,,2 A,,2 | D,6 | D,6 | G,4 E,2 | F,4 ^F,2 | G,4 C,2 | G,6 | C,6 | C,6 | D,6 | %28
 G,,6 | F,,6 | C,6 |[M:4/4] F,,8 | D,4 E,4 | ^F,4 G,4 | C,8 | G,,8 | C,8 | F,4 _E,2 C,2 | %38
 D,4 G,,4 | C,8 | D,4 E,4 | F,8 | E,4 ^F,4 | G,4 C,4 | D,4 G,,4 | G,4 F,4- | F,2 F,2 D,4 | C,8 | %48
 B,,8 |[M:3/2] D,4 B,,4 A,,4 | G,,12 | F,,12 | C,12 |[M:4/4] F,,4 F,4 | B,,6 D,2 | G,,4 D,4 | D,8 | %57
 C,4 G,,4- | G,,2 A,,2 B,,2 C,2 | D,8 | G,,4 F,,4- | F,,2 G,,2 A,,2 B,,2 | C,8 | F,,8 :| %64

